X: 25195
T: Malbay Nights
R: slip jig
M: 9/8
K: Adorian
EAA AGE cde|EAA AGF GED|EAA AGE c2e|1 dBg dcB GB=F:|2 dBg dcB GAB||
cBA age c'3|Ace aba agf|g2g agf gdc|1 B2G GAB dcB:|2 B2G GAB dG=F||

